X: 1404
T: Dutchman Dancing
B: australian traditional tunes wiki
M:6/8
L:1/8
R: Jig
Q: 3/8=100
K:D
V:1 
|:"D"AFA "G"B2A|"D"BdBA2F|ABc efe|"A7"c6|ABAc2B|
cecB2A|1"A7"ABc Ace|"D"f6:|2"A7"ABc ege|"D"d6||
|:"D"Adf dfa|aba edB|ABc ege|"A7"c6|ABAc2B|
cecB2A|1"A7"ABc Ace|"D"f6:|2"A7"ABc ege|"D"d6||
% abcbook-tune_id 6342d53a1a10f0524c7fa99d


% abcbook-boost 0
% abcbook-tablature 
% abcbook-transpose 
% abcbook-lastupdated 1665324363389
% abcbook-soundfonts 
% abcbook-repeats 1
% NFF Book 2009

